src/assets/metronic/worbby/global/img/icon-benefits2.svg

<?xml version="1.0" encoding="UTF-8"?>
<svg width="79px" height="80px" viewBox="0 0 79 80" version="1.1" xmlns="http://www.w3.org/2000/svg" xmlns:xlink="http://www.w3.org/1999/xlink">
    <!-- Generator: Sketch 42 (36781) - http://www.bohemiancoding.com/sketch -->
    <title>icon-benefits2</title>
    <desc>Created with Sketch.</desc>
    <defs>
        <linearGradient x1="0%" y1="49.9979293%" x2="99.9874969%" y2="49.9979293%" id="linearGradient-1">
            <stop stop-color="#FFB247" offset="0%"></stop>
            <stop stop-color="#FFCB33" offset="100%"></stop>
        </linearGradient>
    </defs>
    <g id="Desktop" stroke="none" stroke-width="1" fill="none" fill-rule="evenodd">
        <g id="Desktop-Home-Worbbior" transform="translate(-526.000000, -1307.000000)">
            <g id="icon-benefits2" transform="translate(526.000000, 1307.000000)">
                <path d="M12.9620331,33.4640523 C12.9620331,51.5124183 27.5844458,66.1437908 45.6217595,66.1437908 L45.6217595,66.1437908 C63.6590733,66.1437908 78.281486,51.5124183 78.281486,33.4640523 L78.281486,33.4640523 C78.281486,15.4156863 63.6590733,0.784313725 45.6217595,0.784313725 L45.6217595,0.784313725 C27.5844458,0.784313725 12.9620331,15.4156863 12.9620331,33.4640523" id="Fill-5" fill="url(#linearGradient-1)"></path>
                <path d="M49.4403157,65.4875817 C49.4403157,63.2261438 47.7093502,61.9751634 45.2089215,61.0601307 L44.9672395,60.9647059 L44.9672395,69.8666667 C47.8047166,69.3856209 49.4403157,67.7490196 49.4403157,65.4875817 L49.4403157,65.4875817 Z M42.1297625,46.6235294 C39.8697094,47.0091503 38.0904075,48.4052288 38.0904075,50.8104575 C38.0904075,52.0614379 38.3791195,53.7464052 41.8893869,55.0457516 L42.1297625,55.1411765 L42.1297625,46.6235294 Z M42.1297625,78.1908497 L42.1297625,74.1973856 C36.936866,73.9084967 33.3286194,71.0222222 32.0784051,67.3647059 C31.8380295,66.7385621 32.1750779,66.3045752 32.7525018,66.1607843 L35.2059005,65.4875817 C35.7820181,65.3437908 36.1674028,65.5843137 36.406472,66.2091503 C37.2242716,68.1346405 39.3406219,69.6261438 42.1297625,69.9137255 L42.1297625,59.9529412 L40.6391726,59.4248366 C34.7238429,57.5477124 33.1849166,53.8418301 33.1849166,50.9555556 C33.1849166,45.9503268 37.272608,42.7751634 42.1297625,42.2928105 L42.1297625,37.9620915 C42.1297625,37.3372549 42.4668109,37 43.0925712,37 L44.0057372,37 C44.6301912,37 44.9672395,37.3372549 44.9672395,37.9620915 L44.9672395,42.3411765 C49.1986337,42.8235294 52.1811199,45.2771242 53.2876314,48.6928105 C53.4796706,49.3189542 53.1909587,49.751634 52.6135347,49.9437908 L50.3064516,50.6666667 C49.7290276,50.8588235 49.3436429,50.6183007 49.1032673,50.0405229 C48.3338041,48.0679739 46.939887,47.0091503 44.9672395,46.6718954 L44.9672395,56.2 L46.6028386,56.8261438 C51.7487051,58.4130719 54.3445002,61.8300654 54.3445002,65.2470588 C54.3445002,70.2993464 50.4984908,73.6196078 44.9672395,74.1973856 L44.9672395,78.1908497 C44.9672395,78.8169935 44.6301912,79.1542484 44.0057372,79.1542484 L43.0925712,79.1542484 C42.4668109,79.1542484 42.1297625,78.8169935 42.1297625,78.1908497 L42.1297625,78.1908497 Z" id="Fill-7" fill="#1E2225"></path>
                <path d="M13.17624,57.9869281 C16.879853,57.9869281 19.1399061,55.3398693 19.1399061,51.6352941 C19.1399061,47.8326797 16.8315166,45.1869281 13.17624,45.1869281 L5.09622372,45.1869281 L5.09622372,57.9869281 L13.17624,57.9869281 Z M11.7339865,62.0287582 L5.09622372,62.0287582 L5.09622372,72.9529412 C5.09622372,74.0588235 4.47176975,74.6849673 3.36656461,74.6849673 L1.7309655,74.6849673 C0.62445397,74.6849673 0,74.0588235 0,72.9529412 L0,42.7333333 C0,41.6248366 0.62445397,41 1.7309655,41 L14.1860788,41 C20.6788324,41 24.4294754,45.9084967 24.4294754,51.6352941 C24.4294754,56.6392157 21.543662,60.8261438 16.5428047,61.7882353 C16.879853,65.4457516 19.1399061,70.9320261 22.7951827,70.9320261 C23.756685,70.9320261 24.5744846,70.7385621 25.247275,70.3529412 C26.3054501,69.8718954 27.0265769,69.9699346 27.5556644,70.979085 L27.79604,71.4117647 C28.2284548,72.3751634 28.1801184,73.2405229 27.2669524,73.8183007 C25.8246989,74.7803922 24.1420698,75.2143791 22.4097979,75.2143791 C14.4747908,75.2143791 12.0710349,66.0705882 11.7339865,62.0287582 L11.7339865,62.0287582 Z" id="Fill-9" fill="#1E2225"></path>
            </g>
        </g>
    </g>
</svg>

<svg xmlns="http://www.w3.org/2000/svg" width="79" height="80"><defs><linearGradient id="a" x1="0%" x2="99.9875%" y1="49.9979%" y2="49.9979%"><stop stop-color="#FFB247" offset="0%"/><stop stop-color="#FFCB33" offset="100%"/></linearGradient></defs><g fill="none" fill-rule="evenodd"><path fill="url(#a)" d="M12.962 33.464c0 18.0484 14.6224 32.6798 32.6598 32.6798 18.0373 0 32.6597-14.6314 32.6597-32.6797C78.2815 15.4158 63.659.7844 45.6218.7844 27.5844.7843 12.962 15.4157 12.962 33.464"/><path fill="#1E2225" d="M49.4403 65.4876c0-2.2615-1.731-3.5124-4.2314-4.4275l-.2418-.0953v8.902c2.8375-.481 4.473-2.1177 4.473-4.379zm-7.3105-18.864c-2.26.3856-4.0394 1.7816-4.0394 4.187 0 1.2508.2887 2.9358 3.799 4.2352l.2404.0954v-8.5177zm0 31.5672v-3.9934c-5.193-.289-8.8012-3.1752-10.0514-6.8327-.2404-.626.0967-1.06.674-1.204l2.4535-.673c.576-.144.9614.0966 1.2005.7215.8178 1.9254 2.934 3.417 5.7233 3.7045V59.953l-1.4906-.5282c-5.9154-1.877-7.4543-5.583-7.4543-8.4692 0-5.0053 4.0876-8.1804 8.9448-8.6628V37.962c0-.6247.337-.962.9628-.962h.913c.6246 0 .9616.3373.9616.962v4.3792c4.2314.4823 7.214 2.936 8.3204 6.3516.192.6262-.0966 1.0588-.674 1.251l-2.307.723c-.5776.192-.963-.0485-1.2033-.6263-.7695-1.9725-2.1634-3.0313-4.136-3.3686V56.2l1.6355.626c5.146 1.587 7.7417 5.004 7.7417 8.421 0 5.0523-3.846 8.3726-9.3773 8.9504v3.9934c0 .6262-.337.9634-.9615.9634h-.913c-.626 0-.963-.3372-.963-.9634zM13.1762 57.987c3.7037 0 5.9637-2.647 5.9637-6.3517 0-3.8026-2.3085-6.4484-5.9638-6.4484h-8.08v12.8h8.08zm-1.4422 4.0418H5.0962v10.924c0 1.106-.6244 1.7322-1.7296 1.7322H1.731C.6245 74.685 0 74.0588 0 72.953V42.7332C0 41.6248.6245 41 1.731 41h12.455c6.4928 0 10.2435 4.9085 10.2435 10.6353 0 5.004-2.8858 9.1908-7.8867 10.153.337 3.6575 2.597 9.1437 6.2524 9.1437.9615 0 1.7793-.1934 2.452-.579 1.0583-.481 1.7794-.383 2.3085.626l.2403.4328c.4325.9634.384 1.8287-.529 2.4065-1.4423.962-3.125 1.396-4.8572 1.396-7.935 0-10.3388-9.1437-10.6758-13.1855z"/></g></svg>
